X:254
T: June Apple
C:Traditional
N:Transcribed by Mike Stangeland
R:bluegrass
L:1/8
Q:1/4=240
M:4/4
K:A
z6 e=g |: "A"a=g eg ag eg | a=g ed cB Aa | "G"=gd Bg eg dg | ae =ga gd Bg | "A"a=g eg ag eg | 
a=g ed cB AB | "G"=GF GA BA GA |1 E"A"=G AB [e2A2] e=g :|2 E"A"=G AB [e2A2] ed | 
"A"cA Bc AE AB | cA cd ef eA | "G"=GF GA BA GA | "D"dc de fd ed | "A"cA Bc AE AB | 
cA cd ef eA | "G"=GF GA BA GA :| E"A"=G AB [e4A4] | 


